images/29680.svg

<?xml version="1.0" encoding="UTF-8"?>
<svg xmlns="http://www.w3.org/2000/svg" xmlns:xlink="http://www.w3.org/1999/xlink" width="300pt" height="300pt" viewBox="0 0 300 300" version="1.1">
<defs>
<g>
<symbol overflow="visible" id="glyph0-0">
<path style="stroke:none;" d="M 0.59375 2.125 L 0.59375 -8.46875 L 6.59375 -8.46875 L 6.59375 2.125 Z M 1.265625 1.453125 L 5.9375 1.453125 L 5.9375 -7.78125 L 1.265625 -7.78125 Z M 1.265625 1.453125 "/>
</symbol>
<symbol overflow="visible" id="glyph0-1">
<path style="stroke:none;" d="M 1.171875 -8.75 L 6.203125 -8.75 L 6.203125 -7.75 L 2.359375 -7.75 L 2.359375 -5.171875 L 5.828125 -5.171875 L 5.828125 -4.171875 L 2.359375 -4.171875 L 2.359375 0 L 1.171875 0 Z M 1.171875 -8.75 "/>
</symbol>
<symbol overflow="visible" id="glyph0-2">
<path style="stroke:none;" d="M 1.171875 -8.75 L 2.765625 -8.75 L 6.65625 -1.4375 L 6.65625 -8.75 L 7.796875 -8.75 L 7.796875 0 L 6.203125 0 L 2.328125 -7.3125 L 2.328125 0 L 1.171875 0 Z M 1.171875 -8.75 "/>
</symbol>
<symbol overflow="visible" id="glyph0-3">
<path style="stroke:none;" d="M 4.734375 -7.953125 C 3.867188 -7.953125 3.179688 -7.628906 2.671875 -6.984375 C 2.171875 -6.347656 1.921875 -5.472656 1.921875 -4.359375 C 1.921875 -3.265625 2.171875 -2.394531 2.671875 -1.75 C 3.179688 -1.113281 3.867188 -0.796875 4.734375 -0.796875 C 5.585938 -0.796875 6.265625 -1.113281 6.765625 -1.75 C 7.273438 -2.394531 7.53125 -3.265625 7.53125 -4.359375 C 7.53125 -5.472656 7.273438 -6.347656 6.765625 -6.984375 C 6.265625 -7.628906 5.585938 -7.953125 4.734375 -7.953125 Z M 4.734375 -8.90625 C 5.953125 -8.90625 6.925781 -8.492188 7.65625 -7.671875 C 8.394531 -6.847656 8.765625 -5.742188 8.765625 -4.359375 C 8.765625 -2.984375 8.394531 -1.882812 7.65625 -1.0625 C 6.925781 -0.238281 5.953125 0.171875 4.734375 0.171875 C 3.503906 0.171875 2.519531 -0.238281 1.78125 -1.0625 C 1.039062 -1.882812 0.671875 -2.984375 0.671875 -4.359375 C 0.671875 -5.742188 1.039062 -6.847656 1.78125 -7.671875 C 2.519531 -8.492188 3.503906 -8.90625 4.734375 -8.90625 Z M 4.734375 -8.90625 "/>
</symbol>
</g>
</defs>
<g id="surface18117">
<rect x="0" y="0" width="300" height="300" style="fill:rgb(100%,100%,100%);fill-opacity:1;stroke:none;"/>
<path style="fill:none;stroke-width:1.2;stroke-linecap:butt;stroke-linejoin:miter;stroke:rgb(20%,80%,80%);stroke-opacity:1;stroke-miterlimit:10;" d="M 37.621094 119.691406 L 44.292969 132.617188 "/>
<path style="fill:none;stroke-width:1.2;stroke-linecap:butt;stroke-linejoin:miter;stroke:rgb(0%,0%,0%);stroke-opacity:1;stroke-miterlimit:10;" d="M 44.292969 132.617188 L 50.96875 145.546875 "/>
<path style=" stroke:none;fill-rule:nonzero;fill:rgb(100%,100%,100%);fill-opacity:1;" d="M 30.621094 112.691406 L 37.621094 112.691406 L 37.621094 126.691406 L 30.621094 126.691406 Z M 30.621094 112.691406 "/>
<g style="fill:rgb(20%,80%,80%);fill-opacity:1;">
  <use xlink:href="#glyph0-1" x="30.621094" y="123.830078"/>
</g>
<path style="fill:none;stroke-width:1.2;stroke-linecap:butt;stroke-linejoin:miter;stroke:rgb(0%,0%,0%);stroke-opacity:1;stroke-miterlimit:10;" d="M 50.96875 145.546875 L 35.25 170.035156 "/>
<path style="fill:none;stroke-width:1.2;stroke-linecap:butt;stroke-linejoin:miter;stroke:rgb(0%,0%,0%);stroke-opacity:1;stroke-miterlimit:10;" d="M 55.15625 151.695312 L 42.582031 171.285156 "/>
<path style="fill:none;stroke-width:1.2;stroke-linecap:butt;stroke-linejoin:miter;stroke:rgb(0%,0%,0%);stroke-opacity:1;stroke-miterlimit:10;" d="M 80.035156 146.914062 L 50.96875 145.546875 "/>
<path style="fill:none;stroke-width:1.2;stroke-linecap:butt;stroke-linejoin:miter;stroke:rgb(0%,0%,0%);stroke-opacity:1;stroke-miterlimit:10;" d="M 35.25 170.035156 L 48.597656 195.890625 "/>
<path style="fill:none;stroke-width:1.2;stroke-linecap:butt;stroke-linejoin:miter;stroke:rgb(0%,0%,0%);stroke-opacity:1;stroke-miterlimit:10;" d="M 48.597656 195.890625 L 77.664062 197.257812 "/>
<path style="fill:none;stroke-width:1.2;stroke-linecap:butt;stroke-linejoin:miter;stroke:rgb(0%,0%,0%);stroke-opacity:1;stroke-miterlimit:10;" d="M 51.828125 189.1875 L 75.078125 190.285156 "/>
<path style="fill:none;stroke-width:1.2;stroke-linecap:butt;stroke-linejoin:miter;stroke:rgb(0%,0%,0%);stroke-opacity:1;stroke-miterlimit:10;" d="M 77.664062 197.257812 L 84.339844 210.1875 "/>
<path style="fill:none;stroke-width:1.2;stroke-linecap:butt;stroke-linejoin:miter;stroke:rgb(20%,80%,80%);stroke-opacity:1;stroke-miterlimit:10;" d="M 84.339844 210.1875 L 91.011719 223.117188 "/>
<path style="fill:none;stroke-width:1.2;stroke-linecap:butt;stroke-linejoin:miter;stroke:rgb(0%,0%,0%);stroke-opacity:1;stroke-miterlimit:10;" d="M 77.664062 197.257812 L 93.382812 172.769531 "/>
<path style=" stroke:none;fill-rule:nonzero;fill:rgb(100%,100%,100%);fill-opacity:1;" d="M 88.011719 216.117188 L 95.011719 216.117188 L 95.011719 230.117188 L 88.011719 230.117188 Z M 88.011719 216.117188 "/>
<g style="fill:rgb(20%,80%,80%);fill-opacity:1;">
  <use xlink:href="#glyph0-1" x="88.011719" y="227.255859"/>
</g>
<path style="fill:none;stroke-width:1.2;stroke-linecap:butt;stroke-linejoin:miter;stroke:rgb(0%,0%,0%);stroke-opacity:1;stroke-miterlimit:10;" d="M 93.382812 172.769531 L 80.035156 146.914062 "/>
<path style="fill:none;stroke-width:1.2;stroke-linecap:butt;stroke-linejoin:miter;stroke:rgb(0%,0%,0%);stroke-opacity:1;stroke-miterlimit:10;" d="M 85.964844 173.328125 L 75.285156 152.640625 "/>
<path style="fill:none;stroke-width:1.2;stroke-linecap:butt;stroke-linejoin:miter;stroke:rgb(0%,0%,0%);stroke-opacity:1;stroke-miterlimit:10;" d="M 80.035156 146.914062 L 95.75 122.425781 "/>
<path style="fill:none;stroke-width:1.2;stroke-linecap:butt;stroke-linejoin:miter;stroke:rgb(0%,0%,0%);stroke-opacity:1;stroke-miterlimit:10;" d="M 95.75 122.425781 L 90.464844 108.871094 "/>
<path style="fill:none;stroke-width:1.2;stroke-linecap:butt;stroke-linejoin:miter;stroke:rgb(0%,0%,100%);stroke-opacity:1;stroke-miterlimit:10;" d="M 90.464844 108.871094 L 85.179688 95.316406 "/>
<path style="fill:none;stroke-width:1.2;stroke-linecap:butt;stroke-linejoin:miter;stroke:rgb(0%,0%,0%);stroke-opacity:1;stroke-miterlimit:10;" d="M 124.800781 120.75 L 95.75 122.425781 "/>
<path style="fill:none;stroke-width:1.2;stroke-linecap:butt;stroke-linejoin:miter;stroke:rgb(0%,0%,0%);stroke-opacity:1;stroke-miterlimit:10;" d="M 121.503906 114.082031 L 98.261719 115.421875 "/>
<path style="fill:none;stroke-width:1.2;stroke-linecap:butt;stroke-linejoin:miter;stroke:rgb(0%,0%,100%);stroke-opacity:1;stroke-miterlimit:10;" d="M 85.179688 95.316406 L 96.4375 86.101562 "/>
<path style="fill:none;stroke-width:1.2;stroke-linecap:butt;stroke-linejoin:miter;stroke:rgb(0%,0%,0%);stroke-opacity:1;stroke-miterlimit:10;" d="M 96.4375 86.101562 L 107.695312 76.882812 "/>
<path style="fill:none;stroke-width:1.2;stroke-linecap:butt;stroke-linejoin:miter;stroke:rgb(0%,0%,100%);stroke-opacity:1;stroke-miterlimit:10;" d="M 91.769531 98.773438 L 100.773438 91.398438 "/>
<path style="fill:none;stroke-width:1.2;stroke-linecap:butt;stroke-linejoin:miter;stroke:rgb(0%,0%,0%);stroke-opacity:1;stroke-miterlimit:10;" d="M 100.773438 91.398438 L 109.78125 84.027344 "/>
<path style=" stroke:none;fill-rule:nonzero;fill:rgb(100%,100%,100%);fill-opacity:1;" d="M 81.179688 88.316406 L 90.179688 88.316406 L 90.179688 102.316406 L 81.179688 102.316406 Z M 81.179688 88.316406 "/>
<g style="fill:rgb(0%,0%,100%);fill-opacity:1;">
  <use xlink:href="#glyph0-2" x="81.179688" y="99.455078"/>
</g>
<path style="fill:none;stroke-width:1.2;stroke-linecap:butt;stroke-linejoin:miter;stroke:rgb(0%,0%,0%);stroke-opacity:1;stroke-miterlimit:10;" d="M 107.695312 76.882812 L 119.9375 84.742188 "/>
<path style="fill:none;stroke-width:1.2;stroke-linecap:butt;stroke-linejoin:miter;stroke:rgb(100%,0%,0%);stroke-opacity:1;stroke-miterlimit:10;" d="M 119.9375 84.742188 L 132.183594 92.601562 "/>
<path style="fill:none;stroke-width:1.2;stroke-linecap:butt;stroke-linejoin:miter;stroke:rgb(100%,0%,0%);stroke-opacity:1;stroke-miterlimit:10;" d="M 132.183594 92.601562 L 128.492188 106.675781 "/>
<path style="fill:none;stroke-width:1.2;stroke-linecap:butt;stroke-linejoin:miter;stroke:rgb(0%,0%,0%);stroke-opacity:1;stroke-miterlimit:10;" d="M 128.492188 106.675781 L 124.800781 120.75 "/>
<path style=" stroke:none;fill-rule:nonzero;fill:rgb(100%,100%,100%);fill-opacity:1;" d="M 127.183594 85.601562 L 137.183594 85.601562 L 137.183594 99.601562 L 127.183594 99.601562 Z M 127.183594 85.601562 "/>
<g style="fill:rgb(100%,0%,0%);fill-opacity:1;">
  <use xlink:href="#glyph0-3" x="127.183594" y="96.740234"/>
</g>
<path style="fill:none;stroke-width:1.2;stroke-linecap:butt;stroke-linejoin:miter;stroke:rgb(0%,0%,0%);stroke-opacity:1;stroke-miterlimit:10;" d="M 124.800781 120.75 L 143.234375 143.265625 "/>
<path style="fill:none;stroke-width:1.2;stroke-linecap:butt;stroke-linejoin:miter;stroke:rgb(0%,0%,0%);stroke-opacity:1;stroke-miterlimit:10;" d="M 143.234375 143.265625 L 132.953125 170.484375 "/>
<path style="fill:none;stroke-width:1.2;stroke-linecap:butt;stroke-linejoin:miter;stroke:rgb(0%,0%,0%);stroke-opacity:1;stroke-miterlimit:10;" d="M 143.234375 143.265625 L 171.949219 138.558594 "/>
<path style="fill:none;stroke-width:1.2;stroke-linecap:butt;stroke-linejoin:miter;stroke:rgb(0%,0%,0%);stroke-opacity:1;stroke-miterlimit:10;" d="M 147.214844 149.550781 L 170.1875 145.785156 "/>
<path style="fill:none;stroke-width:1.2;stroke-linecap:butt;stroke-linejoin:miter;stroke:rgb(0%,0%,0%);stroke-opacity:1;stroke-miterlimit:10;" d="M 132.953125 170.484375 L 151.382812 193 "/>
<path style="fill:none;stroke-width:1.2;stroke-linecap:butt;stroke-linejoin:miter;stroke:rgb(0%,0%,0%);stroke-opacity:1;stroke-miterlimit:10;" d="M 140.09375 168.398438 L 154.839844 186.414062 "/>
<path style="fill:none;stroke-width:1.2;stroke-linecap:butt;stroke-linejoin:miter;stroke:rgb(0%,0%,0%);stroke-opacity:1;stroke-miterlimit:10;" d="M 151.382812 193 L 180.097656 188.296875 "/>
<path style="fill:none;stroke-width:1.2;stroke-linecap:butt;stroke-linejoin:miter;stroke:rgb(0%,0%,0%);stroke-opacity:1;stroke-miterlimit:10;" d="M 180.097656 188.296875 L 185.242188 174.6875 "/>
<path style="fill:none;stroke-width:1.2;stroke-linecap:butt;stroke-linejoin:miter;stroke:rgb(0%,0%,100%);stroke-opacity:1;stroke-miterlimit:10;" d="M 185.242188 174.6875 L 190.382812 161.074219 "/>
<path style="fill:none;stroke-width:1.2;stroke-linecap:butt;stroke-linejoin:miter;stroke:rgb(0%,0%,100%);stroke-opacity:1;stroke-miterlimit:10;" d="M 202.8125 206.488281 L 191.457031 197.390625 "/>
<path style="fill:none;stroke-width:1.2;stroke-linecap:butt;stroke-linejoin:miter;stroke:rgb(0%,0%,0%);stroke-opacity:1;stroke-miterlimit:10;" d="M 191.457031 197.390625 L 180.097656 188.296875 "/>
<path style="fill:none;stroke-width:1.2;stroke-linecap:butt;stroke-linejoin:miter;stroke:rgb(0%,0%,100%);stroke-opacity:1;stroke-miterlimit:10;" d="M 204.820312 199.324219 L 195.734375 192.046875 "/>
<path style="fill:none;stroke-width:1.2;stroke-linecap:butt;stroke-linejoin:miter;stroke:rgb(0%,0%,0%);stroke-opacity:1;stroke-miterlimit:10;" d="M 195.734375 192.046875 L 186.652344 184.773438 "/>
<path style="fill:none;stroke-width:1.2;stroke-linecap:butt;stroke-linejoin:miter;stroke:rgb(0%,0%,100%);stroke-opacity:1;stroke-miterlimit:10;" d="M 190.382812 161.074219 L 181.167969 149.816406 "/>
<path style="fill:none;stroke-width:1.2;stroke-linecap:butt;stroke-linejoin:miter;stroke:rgb(0%,0%,0%);stroke-opacity:1;stroke-miterlimit:10;" d="M 181.167969 149.816406 L 171.949219 138.558594 "/>
<path style="fill:none;stroke-width:1.2;stroke-linecap:butt;stroke-linejoin:miter;stroke:rgb(0%,0%,100%);stroke-opacity:1;stroke-miterlimit:10;" d="M 190.382812 161.074219 L 204.914062 161.757812 "/>
<path style="fill:none;stroke-width:1.2;stroke-linecap:butt;stroke-linejoin:miter;stroke:rgb(0%,0%,0%);stroke-opacity:1;stroke-miterlimit:10;" d="M 204.914062 161.757812 L 219.449219 162.445312 "/>
<path style=" stroke:none;fill-rule:nonzero;fill:rgb(100%,100%,100%);fill-opacity:1;" d="M 186.382812 154.074219 L 195.382812 154.074219 L 195.382812 168.074219 L 186.382812 168.074219 Z M 186.382812 154.074219 "/>
<g style="fill:rgb(0%,0%,100%);fill-opacity:1;">
  <use xlink:href="#glyph0-2" x="186.382812" y="165.212891"/>
</g>
<path style="fill:none;stroke-width:1.2;stroke-linecap:butt;stroke-linejoin:miter;stroke:rgb(0%,0%,0%);stroke-opacity:1;stroke-miterlimit:10;" d="M 219.449219 162.445312 L 223.289062 176.476562 "/>
<path style="fill:none;stroke-width:1.2;stroke-linecap:butt;stroke-linejoin:miter;stroke:rgb(0%,0%,100%);stroke-opacity:1;stroke-miterlimit:10;" d="M 223.289062 176.476562 L 227.128906 190.511719 "/>
<path style="fill:none;stroke-width:1.2;stroke-linecap:butt;stroke-linejoin:miter;stroke:rgb(0%,0%,0%);stroke-opacity:1;stroke-miterlimit:10;" d="M 213.613281 167.058594 L 216.683594 178.285156 "/>
<path style="fill:none;stroke-width:1.2;stroke-linecap:butt;stroke-linejoin:miter;stroke:rgb(0%,0%,100%);stroke-opacity:1;stroke-miterlimit:10;" d="M 216.683594 178.285156 L 219.757812 189.511719 "/>
<path style="fill:none;stroke-width:1.2;stroke-linecap:butt;stroke-linejoin:miter;stroke:rgb(0%,0%,0%);stroke-opacity:1;stroke-miterlimit:10;" d="M 219.449219 162.445312 L 237.640625 139.730469 "/>
<path style="fill:none;stroke-width:1.2;stroke-linecap:butt;stroke-linejoin:miter;stroke:rgb(0%,0%,100%);stroke-opacity:1;stroke-miterlimit:10;" d="M 227.128906 190.511719 L 202.8125 206.488281 "/>
<path style=" stroke:none;fill-rule:nonzero;fill:rgb(100%,100%,100%);fill-opacity:1;" d="M 223.128906 183.511719 L 232.128906 183.511719 L 232.128906 197.511719 L 223.128906 197.511719 Z M 223.128906 183.511719 "/>
<g style="fill:rgb(0%,0%,100%);fill-opacity:1;">
  <use xlink:href="#glyph0-2" x="223.128906" y="194.650391"/>
</g>
<path style=" stroke:none;fill-rule:nonzero;fill:rgb(100%,100%,100%);fill-opacity:1;" d="M 198.8125 199.488281 L 207.8125 199.488281 L 207.8125 213.488281 L 198.8125 213.488281 Z M 198.8125 199.488281 "/>
<g style="fill:rgb(0%,0%,100%);fill-opacity:1;">
  <use xlink:href="#glyph0-2" x="198.8125" y="210.626953"/>
</g>
<path style="fill:none;stroke-width:1.2;stroke-linecap:butt;stroke-linejoin:miter;stroke:rgb(0%,0%,0%);stroke-opacity:1;stroke-miterlimit:10;" d="M 237.640625 139.730469 L 242.039062 110.96875 "/>
<path style="fill:none;stroke-width:1.2;stroke-linecap:butt;stroke-linejoin:miter;stroke:rgb(0%,0%,0%);stroke-opacity:1;stroke-miterlimit:10;" d="M 264.75 129.160156 L 237.640625 139.730469 "/>
<path style="fill:none;stroke-width:1.2;stroke-linecap:butt;stroke-linejoin:miter;stroke:rgb(0%,0%,0%);stroke-opacity:1;stroke-miterlimit:10;" d="M 242.039062 110.96875 L 264.75 129.160156 "/>
</g>
</svg>

<svg xmlns="http://www.w3.org/2000/svg" xmlns:xlink="http://www.w3.org/1999/xlink" width="300pt" height="300pt" viewBox="0 0 300 300"><defs><symbol overflow="visible"><path d="M.594 2.125V-8.47h6V2.126zm.672-.672h4.671V-7.78h-4.67zm0 0"/></symbol><symbol overflow="visible" id="a"><path d="M1.172-8.75h5.03v1H2.36v2.578h3.468v1h-3.47V0H1.173zm0 0"/></symbol><symbol overflow="visible" id="b"><path d="M1.172-8.75h1.594l3.89 7.313V-8.75h1.14V0H6.204L2.328-7.313V0H1.172zm0 0"/></symbol><symbol overflow="visible" id="c"><path d="M4.734-7.953c-.867 0-1.554.324-2.062.97-.5.635-.75 1.51-.75 2.624 0 1.094.25 1.965.75 2.61.508.637 1.195.953 2.062.953.852 0 1.532-.316 2.032-.953.507-.645.765-1.516.765-2.61 0-1.113-.257-1.988-.764-2.624-.5-.645-1.18-.97-2.032-.97zm0-.953c1.22 0 2.192.414 2.922 1.234.74.824 1.11 1.93 1.11 3.313 0 1.376-.37 2.477-1.11 3.298C6.926-.24 5.953.17 4.734.17c-1.23 0-2.214-.41-2.953-1.234C1.04-1.882.673-2.984.673-4.36c0-1.382.367-2.488 1.11-3.312.738-.82 1.722-1.234 2.952-1.234zm0 0"/></symbol></defs><g><path fill="#fff" d="M0 0h300v300H0z"/><path d="M37.62 119.69l6.673 12.927" stroke-width="1.2" stroke="#3cc" stroke-miterlimit="10" fill="none"/><path d="M44.293 132.617l6.676 12.93" stroke-width="1.2" stroke="#000" stroke-miterlimit="10" fill="none"/><path d="M30.62 112.69h7v14h-7zm0 0" fill="#fff"/><use xlink:href="#a" x="30.621" y="123.83" fill="#3cc"/><path d="M50.97 145.547l-15.72 24.488M55.156 151.695l-12.574 19.59M80.035 146.914l-29.066-1.367M35.25 170.035l13.348 25.856M48.598 195.89l29.066 1.368M51.828 189.188l23.25 1.097M77.664 197.258l6.676 12.93" stroke-width="1.2" stroke="#000" stroke-miterlimit="10" fill="none"/><path d="M84.34 210.188l6.672 12.93" stroke-width="1.2" stroke="#3cc" stroke-miterlimit="10" fill="none"/><path d="M77.664 197.258l15.72-24.488" stroke-width="1.2" stroke="#000" stroke-miterlimit="10" fill="none"/><path d="M88.012 216.117h7v14h-7zm0 0" fill="#fff"/><use xlink:href="#a" x="88.012" y="227.256" fill="#3cc"/><path d="M93.383 172.77l-13.348-25.856M85.965 173.328l-10.68-20.687M80.035 146.914l15.715-24.488M95.75 122.426l-5.285-13.555" stroke-width="1.2" stroke="#000" stroke-miterlimit="10" fill="none"/><path d="M90.465 108.87L85.18 95.317" stroke-width="1.2" stroke="#00f" stroke-miterlimit="10" fill="none"/><path d="M124.8 120.75l-29.05 1.676M121.504 114.082l-23.242 1.34" stroke-width="1.2" stroke="#000" stroke-miterlimit="10" fill="none"/><path d="M85.18 95.316l11.257-9.214" stroke-width="1.2" stroke="#00f" stroke-miterlimit="10" fill="none"/><path d="M96.438 86.102l11.257-9.22" stroke-width="1.2" stroke="#000" stroke-miterlimit="10" fill="none"/><path d="M91.77 98.773l9.003-7.375" stroke-width="1.2" stroke="#00f" stroke-miterlimit="10" fill="none"/><path d="M100.773 91.398l9.008-7.37" stroke-width="1.2" stroke="#000" stroke-miterlimit="10" fill="none"/><path d="M81.18 88.316h9v14h-9zm0 0" fill="#fff"/><use xlink:href="#b" x="81.18" y="99.455" fill="#00f"/><path d="M107.695 76.883l12.243 7.86" stroke-width="1.2" stroke="#000" stroke-miterlimit="10" fill="none"/><path d="M119.938 84.742l12.246 7.86M132.184 92.602l-3.692 14.074" stroke-width="1.2" stroke="#f00" stroke-miterlimit="10" fill="none"/><path d="M128.492 106.676l-3.69 14.074" stroke-width="1.2" stroke="#000" stroke-miterlimit="10" fill="none"/><path d="M127.184 85.602h10v14h-10zm0 0" fill="#fff"/><use xlink:href="#c" x="127.184" y="96.74" fill="#f00"/><path d="M124.8 120.75l18.434 22.516M143.234 143.266l-10.28 27.218M143.234 143.266l28.715-4.707M147.215 149.55l22.972-3.765M132.953 170.484L151.383 193M140.094 168.398l14.746 18.016M151.383 193l28.715-4.703M180.098 188.297l5.144-13.61" stroke-width="1.2" stroke="#000" stroke-miterlimit="10" fill="none"/><path d="M185.242 174.688l5.14-13.614M202.813 206.488l-11.356-9.097" stroke-width="1.2" stroke="#00f" stroke-miterlimit="10" fill="none"/><path d="M191.457 197.39l-11.36-9.093" stroke-width="1.2" stroke="#000" stroke-miterlimit="10" fill="none"/><path d="M204.82 199.324l-9.086-7.277" stroke-width="1.2" stroke="#00f" stroke-miterlimit="10" fill="none"/><path d="M195.734 192.047l-9.082-7.274" stroke-width="1.2" stroke="#000" stroke-miterlimit="10" fill="none"/><path d="M190.383 161.074l-9.215-11.258" stroke-width="1.2" stroke="#00f" stroke-miterlimit="10" fill="none"/><path d="M181.168 149.816l-9.22-11.257" stroke-width="1.2" stroke="#000" stroke-miterlimit="10" fill="none"/><path d="M190.383 161.074l14.53.684" stroke-width="1.2" stroke="#00f" stroke-miterlimit="10" fill="none"/><path d="M204.914 161.758l14.535.687" stroke-width="1.2" stroke="#000" stroke-miterlimit="10" fill="none"/><path d="M186.383 154.074h9v14h-9zm0 0" fill="#fff"/><use xlink:href="#b" x="186.383" y="165.213" fill="#00f"/><path d="M219.45 162.445l3.84 14.032" stroke-width="1.2" stroke="#000" stroke-miterlimit="10" fill="none"/><path d="M223.29 176.477l3.84 14.035" stroke-width="1.2" stroke="#00f" stroke-miterlimit="10" fill="none"/><path d="M213.613 167.06l3.07 11.225" stroke-width="1.2" stroke="#000" stroke-miterlimit="10" fill="none"/><path d="M216.684 178.285l3.074 11.227" stroke-width="1.2" stroke="#00f" stroke-miterlimit="10" fill="none"/><path d="M219.45 162.445l18.19-22.715" stroke-width="1.2" stroke="#000" stroke-miterlimit="10" fill="none"/><path d="M227.13 190.512l-24.317 15.976" stroke-width="1.2" stroke="#00f" stroke-miterlimit="10" fill="none"/><path d="M223.13 183.512h9v14h-9zm0 0" fill="#fff"/><use xlink:href="#b" x="223.129" y="194.65" fill="#00f"/><path d="M198.813 199.488h9v14h-9zm0 0" fill="#fff"/><use xlink:href="#b" x="198.813" y="210.627" fill="#00f"/><path d="M237.64 139.73l4.4-28.76M264.75 129.16l-27.11 10.57M242.04 110.97l22.71 18.19" stroke-width="1.2" stroke="#000" stroke-miterlimit="10" fill="none"/></g></svg>
